pro/src/ui-kit/form/DatePicker/assets/calendar.svg

<svg viewBox="0 0 18 18" >
<path d="M12.735 1.08333C12.274 1.08333 11.9027 1.45512 11.9027 1.91667V2.24998C11.9082 2.27691 11.911 2.30479 11.911 2.33333C11.911 2.36188 11.9082 2.38976 11.9027 2.41669V2.75C11.9027 3.21155 12.274 3.58333 12.735 3.58333C12.9648 3.58333 13.1511 3.76988 13.1511 4C13.1511 4.23012 12.9648 4.41667 12.735 4.41667C11.8144 4.41667 11.0704 3.67179 11.0704 2.75H6.50113H6.50113H5.76871C5.53888 2.75 5.35256 2.56345 5.35256 2.33333C5.35256 2.10321 5.53888 1.91667 5.76871 1.91667L6.08498 1.91667C6.08498 1.45512 5.71366 1.08333 5.25269 1.08333C4.79172 1.08333 4.4204 1.45512 4.4204 1.91667V2.75C4.4204 3.21155 4.79172 3.58333 5.25269 3.58333C5.48252 3.58333 5.66884 3.76988 5.66884 4C5.66884 4.23012 5.48252 4.41667 5.25269 4.41667C4.33206 4.41667 3.5881 3.67179 3.5881 2.75H2.33133C1.87036 2.75 1.49904 3.12179 1.49904 3.58333V5.25H14.4079C14.6378 5.25 14.8241 5.43655 14.8241 5.66667C14.8241 5.89679 14.6378 6.08333 14.4079 6.08333H1.49904V14.4167C1.49904 15.5657 2.43216 16.5 3.57977 16.5H14.3996C15.5606 16.5 16.4977 15.5454 16.4804 14.3812L16.4803 14.3742L16.5011 3.58706C16.4907 3.12349 16.1099 2.75 15.648 2.75H13.9918H13.9834H13.2593C13.0295 2.75 12.8432 2.56345 12.8432 2.33333C12.8432 2.10321 13.0295 1.91667 13.2593 1.91667L13.5673 1.91667C13.5673 1.45512 13.196 1.08333 12.735 1.08333ZM6.91728 1.91667H11.0704C11.0704 0.994881 11.8144 0.25 12.735 0.25C13.6556 0.25 14.3996 0.994881 14.3996 1.91667H15.648C16.5665 1.91667 17.3168 2.6578 17.3333 3.5758L17.3334 3.58414L17.3126 14.3725C17.3349 15.9983 16.0256 17.3333 14.3996 17.3333H3.57977C1.9725 17.3333 0.666748 16.026 0.666748 14.4167V3.58333C0.666748 2.66155 1.4107 1.91667 2.33133 1.91667H3.5881C3.5881 0.994881 4.33206 0.25 5.25269 0.25C6.17333 0.25 6.91728 0.994881 6.91728 1.91667Z" fill="currentColor"/>
</svg>

<svg viewBox="0 0 18 18"><path fill="currentColor" d="M12.735 1.083a.83.83 0 0 0-.832.834v.333a.4.4 0 0 1 0 .167v.333c0 .462.371.833.832.833a.416.416 0 0 1 0 .834c-.92 0-1.665-.745-1.665-1.667H5.77a.416.416 0 0 1 0-.833h.316a.831.831 0 1 0-1.665 0v.833c0 .462.372.833.833.833a.416.416 0 0 1 0 .834c-.92 0-1.665-.745-1.665-1.667H2.331a.83.83 0 0 0-.832.833V5.25h12.909a.416.416 0 0 1 0 .833H1.499v8.334c0 1.149.933 2.083 2.08 2.083H14.4a2.085 2.085 0 0 0 2.081-2.119v-.007l.021-10.787a.857.857 0 0 0-.853-.837h-2.389a.416.416 0 0 1 0-.833h.308a.83.83 0 0 0-.832-.834m-5.818.834h4.153a1.664 1.664 0 1 1 3.33 0h1.248a1.69 1.69 0 0 1 1.685 1.659v.008l-.02 10.789a2.92 2.92 0 0 1-2.913 2.96H3.58a2.917 2.917 0 0 1-2.913-2.916V3.583c0-.921.744-1.666 1.664-1.666h1.257a1.664 1.664 0 1 1 3.33 0"/></svg>
